X:1
T:Scheherazade (theme)
C:Nikolai Rimsky-Korsakov
M:6/8
L:1/8
Q:3/8=80
K:E
% Solo violin theme — exotic, improvisatory, E major (4 sharps)
|B2A G2F|E3 E2F|GAG FEF|E3 B3|
dcd BAG|F2E FGA|B2A BAG|F3 E3|
EFG ABc|dBA GFE|FGA B2A|E6|]
